src/assets/leftArrow.svg

<svg fill="none" height="24" viewBox="0 0 24 24" width="24" xmlns="http://www.w3.org/2000/svg"><path d="m20.0005 10.9999h-12.58602l4.29302-4.29303c.39-.39.39-1.02299 0-1.41399s-1.023-.39-1.414 0l-6.00002 6.00002c-.39.39-.39 1.023 0 1.414l6.00002 6c.195.195.45.293.707.293s.512-.098.707-.293c.39-.39.39-1.023 0-1.414l-4.29302-4.293h12.58602c.553 0 1-.447 1-1s-.447-1-1-1z" fill="#07101b"/></svg>

<svg width="24" height="24" viewBox="0 0 24 24" fill="none" xmlns="http://www.w3.org/2000/svg">
<path d="M20.0005 10.9999H7.41448L11.7075 6.70687C12.0975 6.31687 12.0975 5.68388 11.7075 5.29288C11.3175 4.90188 10.6845 4.90288 10.2935 5.29288L4.29348 11.2929C3.90348 11.6829 3.90348 12.3159 4.29348 12.7069L10.2935 18.7069C10.4885 18.9019 10.7435 18.9999 11.0005 18.9999C11.2575 18.9999 11.5125 18.9019 11.7075 18.7069C12.0975 18.3169 12.0975 17.6839 11.7075 17.2929L7.41448 12.9999H20.0005C20.5535 12.9999 21.0005 12.5529 21.0005 11.9999C21.0005 11.4469 20.5535 10.9999 20.0005 10.9999Z" fill="#07101B"/>
</svg>
